assets/icons/qvision/add_location.svg

<svg xmlns="http://www.w3.org/2000/svg" height="24" viewBox="0 0 24 24" width="24"><path d="M0 0h24v24H0V0z" fill="none"/><path d="M12 2C8.14 2 5 5.14 5 9c0 5.25 7 13 7 13s7-7.75 7-13c0-3.86-3.14-7-7-7zm4 8h-3v3h-2v-3H8V8h3V5h2v3h3v2z"/></svg>

<svg width="24" height="24" viewBox="0 0 24 24" fill="none" xmlns="http://www.w3.org/2000/svg">
<g clip-path="url(#clip0_147_5059)">
<path d="M12 2C8.14 2 5 5.14 5 9C5 14.25 12 22 12 22C12 22 19 14.25 19 9C19 5.14 15.86 2 12 2ZM16 10H13V13H11V10H8V8H11V5H13V8H16V10Z" fill="#323232"/>
</g>
<defs>
<clipPath id="clip0_147_5059">
<rect width="24" height="24" fill="white"/>
</clipPath>
</defs>
</svg>
